svgs/ytstudio.svg

<svg width="192" height="192" viewBox="0 0 192 192" fill="none" xmlns="http://www.w3.org/2000/svg">
<path d="M157.024 136.645L160.003 141.854L160.003 141.854L157.024 136.645ZM101.022 168.671L104.001 173.88L104.001 173.88L101.022 168.671ZM90.978 168.671L87.9994 173.88L87.9994 173.88L90.978 168.671ZM34.976 136.645L31.9974 141.854L31.9974 141.854L34.976 136.645ZM29.9541 128.029L35.9541 128.03V128.029H29.9541ZM29.9541 63.9765L35.9541 63.9765L35.9541 63.9764L29.9541 63.9765ZM34.976 55.3608L31.9974 50.1523L31.9974 50.1523L34.976 55.3608ZM90.978 23.3348L87.9995 18.1263L87.9994 18.1263L90.978 23.3348ZM96 22.002L96 28.002L96 22.002ZM101.022 23.3348L104.001 18.1263L104.001 18.1263L101.022 23.3348ZM157.024 55.3608L160.003 50.1523L160.003 50.1523L157.024 55.3608ZM162.046 63.9765L156.046 63.9764V63.9765H162.046ZM162.046 128.029L156.046 128.029L156.046 128.03L162.046 128.029ZM82 70.0002L85.1581 64.8986C83.3075 63.753 80.9816 63.6994 79.0801 64.7586C77.1787 65.8178 76 67.8237 76 70.0002H82ZM82 122H76C76 124.177 77.1787 126.183 79.0801 127.242C80.9816 128.301 83.3075 128.247 85.1581 127.102L82 122ZM124 96.0002L127.158 101.102C128.925 100.008 130 98.0781 130 96.0002C130 93.9223 128.925 91.9923 127.158 90.8986L124 96.0002ZM154.045 131.437L98.0434 163.463L104.001 173.88L160.003 141.854L154.045 131.437ZM98.0435 163.463C97.4258 163.816 96.7209 164.004 96 164.004V176.004C98.8053 176.004 101.564 175.273 104.001 173.88L98.0435 163.463ZM96 164.004C95.2791 164.004 94.5742 163.816 93.9566 163.463L87.9994 173.88C90.4356 175.273 93.1947 176.004 96 176.004V164.004ZM93.9566 163.463L37.9546 131.437L31.9974 141.854L87.9994 173.88L93.9566 163.463ZM37.9546 131.437C37.3374 131.084 36.8319 130.58 36.4834 129.982L26.116 136.025C27.5305 138.452 29.5609 140.46 31.9974 141.854L37.9546 131.437ZM36.4834 129.982C36.1351 129.385 35.9541 128.712 35.9541 128.03L23.9541 128.029C23.9541 130.84 24.7012 133.598 26.116 136.025L36.4834 129.982ZM35.9541 128.029V63.9765H23.9541V128.029H35.9541ZM35.9541 63.9764C35.9541 63.2945 36.1351 62.6212 36.4834 62.0237L26.116 55.9808C24.7012 58.408 23.9541 61.1659 23.9541 63.9766L35.9541 63.9764ZM36.4834 62.0237C36.8319 61.4258 37.3374 60.9222 37.9546 60.5693L31.9974 50.1523C29.5609 51.5457 27.5305 53.5539 26.116 55.9808L36.4834 62.0237ZM37.9546 60.5693L93.9566 28.5433L87.9994 18.1263L31.9974 50.1523L37.9546 60.5693ZM93.9565 28.5433C94.5742 28.1901 95.2791 28.002 96 28.002L96 16.002C93.1947 16.002 90.4356 16.7332 87.9995 18.1263L93.9565 28.5433ZM96 28.002C96.7209 28.002 97.4258 28.1901 98.0435 28.5433L104.001 18.1263C101.564 16.7332 98.8053 16.002 96 16.002L96 28.002ZM98.0434 28.5433L154.045 60.5693L160.003 50.1523L104.001 18.1263L98.0434 28.5433ZM154.045 60.5693C154.663 60.9222 155.168 61.4258 155.517 62.0237L165.884 55.9808C164.469 53.5539 162.439 51.5457 160.003 50.1523L154.045 60.5693ZM155.517 62.0237C155.865 62.6212 156.046 63.2945 156.046 63.9764L168.046 63.9766C168.046 61.1659 167.299 58.4081 165.884 55.9808L155.517 62.0237ZM156.046 63.9765V128.029H168.046V63.9765H156.046ZM156.046 128.03C156.046 128.712 155.865 129.385 155.517 129.982L165.884 136.025C167.299 133.598 168.046 130.84 168.046 128.029L156.046 128.03ZM155.517 129.982C155.168 130.58 154.663 131.084 154.045 131.437L160.003 141.854C162.439 140.46 164.469 138.452 165.884 136.025L155.517 129.982ZM76 70.0002V122H88V70.0002H76ZM85.1581 127.102L127.158 101.102L120.842 90.8986L78.8419 116.899L85.1581 127.102ZM127.158 90.8986L85.1581 64.8986L78.8419 75.1018L120.842 101.102L127.158 90.8986Z" fill="black"/>
</svg>

<svg width="192" height="192" viewBox="0 0 192 192" fill="none" xmlns="http://www.w3.org/2000/svg"><path d="m157.024 136.645 2.979 5.209-2.979-5.209Zm-56.002 32.026 2.979 5.209-2.979-5.209Zm-10.044 0-2.979 5.209 2.979-5.209Zm-56.002-32.026-2.979 5.209 2.979-5.209Zm-5.022-8.616 6 .001v-.001h-6Zm0-64.052h6-6Zm5.022-8.616-2.979-5.209 2.979 5.209Zm56.002-32.026L88 18.126l2.978 5.209ZM96 22.002v6-6Zm5.022 1.333 2.979-5.209-2.979 5.209Zm56.002 32.026 2.979-5.209-2.979 5.209Zm5.022 8.616h-6 6Zm0 64.052h-6v.001l6-.001ZM82 70l3.158-5.101A6 6 0 0 0 76 70h6Zm0 52h-6a6 6 0 0 0 9.158 5.102L82 122Zm42-26 3.158 5.102a6 6 0 0 0 0-10.203L124 96Zm30.045 35.437-56.002 32.026 5.958 10.417 56.002-32.026-5.958-10.417Zm-56.001 32.026a4.12 4.12 0 0 1-2.044.541v12c2.805 0 5.564-.731 8.001-2.124l-5.958-10.417Zm-2.044.541a4.12 4.12 0 0 1-2.043-.541l-5.958 10.417A16.12 16.12 0 0 0 96 176.004v-12Zm-2.043-.541-56.002-32.026-5.958 10.417L88 173.88l5.958-10.417Zm-56.002-32.026a3.998 3.998 0 0 1-1.472-1.455l-10.367 6.043a16.001 16.001 0 0 0 5.881 5.829l5.958-10.417Zm-1.472-1.455a3.871 3.871 0 0 1-.529-1.952l-12-.001c0 2.811.747 5.569 2.162 7.996l10.367-6.043Zm-.529-1.953V63.977h-12v64.052h12Zm0-64.053c0-.681.181-1.355.53-1.952L26.115 55.98a15.876 15.876 0 0 0-2.162 7.996h12Zm.53-1.952a3.996 3.996 0 0 1 1.47-1.455l-5.957-10.417a15.996 15.996 0 0 0-5.881 5.829l10.367 6.043Zm1.47-1.455 56.003-32.026-5.958-10.417-56.002 32.026 5.958 10.417Zm56.003-32.026A4.118 4.118 0 0 1 96 28.002v-12c-2.805 0-5.564.731-8 2.124l5.957 10.417ZM96 28.002c.72 0 1.426.188 2.043.541l5.958-10.417A16.123 16.123 0 0 0 96 16.002v12Zm2.043.541 56.002 32.026 5.958-10.417-56.002-32.026-5.958 10.417Zm56.002 32.026a3.996 3.996 0 0 1 1.472 1.455l10.367-6.043a16.003 16.003 0 0 0-5.881-5.829l-5.958 10.417Zm1.472 1.455c.348.597.529 1.27.529 1.952h12c0-2.81-.747-5.568-2.162-7.995l-10.367 6.043Zm.529 1.953v64.052h12V63.977h-12Zm0 64.053c0 .682-.181 1.355-.529 1.952l10.367 6.043a15.873 15.873 0 0 0 2.162-7.996l-12 .001Zm-.529 1.952a3.998 3.998 0 0 1-1.472 1.455l5.958 10.417a16.008 16.008 0 0 0 5.881-5.829l-10.367-6.043ZM76 70v52h12V70H76Zm9.158 57.102 42-26-6.316-10.203-42 26 6.316 10.203Zm42-36.203-42-26-6.316 10.203 42 26 6.316-10.203Z" fill="#000"/></svg>
